X: 07017
T: CASCADIA PARK
C: Bob McQuillen 22 Ma4 89
B: Bob's Note Book 7 #17
%R: reel
Z: 2020 John Chambers <jc:trillian.mit.edu>
M: C
L: 1/8
K: A
ED \
| CDEF ECA,C | EAcf ecAE | FAdF EAcE | DFBA GFED |
| CDEF ECA,C | EAcf ecAE | FAdF EAce | dBGB A2  :|
|: AB \
| cAFA EFAB | cAFA E2cB | Acef ecae | faec B2AB |
| cAFA EFAB | cAFA EAcB | Acef ecaf | ecBc A2  :|
%%begintext align
%% It is always fun to go up to Old
%% Orchard Beach in Maine for a couple of days after school
%% is over. I always stay with Fred and Marge Fitanides at their
%% Cascadia Park Campground, on Rt. 1 in Saco. It's a real pretty
%% spot, and a good place to relax!
%%endtext

%%sep 1 1 500

%%sep 1 1 500

